X: 10331
T: Don Freake's
R: polka
M: 2/4
K: Edorian
|:E E2 D|FA Bc|dc/B/ AF|EF DF|
E E2 D|FA Bc|dc/B/ AF|1 E2 ED:|2 E2 de||
|:fd/f/ ec/e/|dc Bc|dc/B/ AF|EF DF|
E E2 D|FA Bc|dc/B/ AF|1 E2 de:|2 E2 ED||

